X:1
T:Title
%%score { ( 1 4 ) | ( 2 3 ) }
L:1/8
M:4/4
K:D
V:1 treble nm="Grand Piano"
V:4 treble 
V:2 bass 
V:3 bass 
V:1
 z4 z2[Q:1/4=110] [DF][EG] | [FA]2 [FA]2 [DF]G [DFA]2 | [DGB]2 [DGB]2 [B,G]2 [DGB]2 | %3
 [DFA]2 [A,DF]2 .[^G,DF]2 [G,D]2 |[M:3/4] [A,CE]6 |[M:1/4] [DF][EG] | %6
[M:4/4] [FA]2 [FA]2 [DF][EG] [FA]2 | B2 B2 G2 B2 | A3 G F2 [CE]2 |[M:3/4] D6 |[M:1/4] [FA]2 | %11
[M:4/4] [Fd]3 [Fd] [Gd]2 c2 | [Fd]4 [FA]2 [FA]2 | [GB]2 [FA]2 AG F2 |[M:3/4] [CE]6 |[M:1/4] [CE]2 | %16
[M:4/4] [DF]2 [FA]2 [FA]2 [DF]2 |[M:9/8] [DG]2 [DB]- [DB] d2- d B2 |[M:4/4] A3 [Fd] [Gd]2 c2 | %19
[M:3/4] [Fd]6 |] %20
V:2
 z4 z2 [D,A,]2 | [D,D]2 [D,D]2 z E D,2 | G,2 G,2 G,2 G,2 | D,2 D,2 z E B,,2 |[M:3/4] A,,6 | %5
[M:1/4] [D,A,]2 |[M:4/4] [D,D]2 [D,D]2 [D,A,]2 [D,D]2 | [G,DG]2 [G,DG]2[K:bass] [G,B,]2 [G,D]2 | %8
 [F,A,D]3 [G,B,E] [A,D]2 [A,,G,]2 |[M:3/4] [D,F,]6 |[M:1/4] [D,D]2 | %11
[M:4/4] [D,D]3 [D,D] [E,B,]2 [A,G]2 | [D,A,]4 [D,D]2 [D,D]2 | [D,D]2 [D,D]2 [C,A,]2 [D,A,D]2 | %14
[M:3/4] [A,,A,]6 |[M:1/4] [A,,A,]2 |[M:4/4] [D,A,]2 [D,D]2 [D,D]2 [=C,A,]2 | %17
[M:9/8] [B,,G,]2 [G,,G,]- [G,,G,] [G,B,D]2- [G,B,D] [G,D]2 |[M:4/4] [F,D]3 [D,D] [E,B,]2 [A,G]2 | %19
[M:3/4] [D,A,]6 |] %20
V:3
 x8 | z4 [D,A,]2 z2 | x8 | z4 B,,2 z2 |[M:3/4] x6 |[M:1/4] x2 |[M:4/4] x8 | x4[K:bass] x4 | x8 | %9
[M:3/4] x6 |[M:1/4] x2 |[M:4/4] x8 | x8 | x8 |[M:3/4] x6 |[M:1/4] x2 |[M:4/4] x8 |[M:9/8] x9 | %18
[M:4/4] x8 |[M:3/4] x6 |] %20
V:4
 x8 | x8 | x8 | x8 |[M:3/4] x6 |[M:1/4] x2 |[M:4/4] x8 | x8 | x8 |[M:3/4] x6 |[M:1/4] x2 | %11
[M:4/4] x8 | x8 | z4 E2 z2 |[M:3/4] x6 |[M:1/4] x2 |[M:4/4] x8 |[M:9/8] x9 |[M:4/4] x8 | %19
[M:3/4] x6 |] %20

